X: 1
T: String Quartet in E\b Major opus 64 no 6 mvt 2
C: Franz Joseph Haydn
%%abc-version 2.0
%%abcx-abcm2ps-target-version 5.9.1 (29 Sep 2008)
%%abc-creator hum2abc beta
%%abcx-conversion-date 2021/02/14 14:38:26
%%abc-copyright Copyright (c) 1994, 2000 Center for Computer Assisted Research in the Humanities
%%abc-edited-by Frances Bennion
%%abcx-initial-encoding-date 1997/04/15
%%gracespace 0 6 6
%%humdrum-veritas 1156421545
%%humdrum-veritas-data 75016462
%%linebreak <none>
%%barnumbers 0
L: 1/16
M: 3/4
N: Derived from op64n6-02.krn
Q: "Andante"
%%staves [1 2 3 4]
V: 1
V: 2
V: 3 clef=alto
V: 4 clef=bass
K: Bb
[V:1]B,2D2 F2B2 d2f2 [I:setbarnb2]|
[V:2]z12 |
[V:3]D,4 z8 |
[V:4]B,,4 z8 |
[V:1]f8 e2d2 |
[V:2]G,2B,2 D2G2 A2B2 |
[V:3]z12 |
[V:4]z12 |
[V:1]d8 c2B2 |
[V:2]G12- |
[V:3]E,2G,2 =B,2D2 E2=E2 |
[V:4]z12 |
[V:1]B4 A2G2 F2E2 |
[V:2]G4 F2E2 D2C2 |
[V:3]F2=E,2 F,2F,2 G,2A,2 |
[V:4]z12 |
[V:1]D2D2 F2B2 d2f2 |
[V:2]D4 d6 c2 |
[V:3]B,8- B,2A,2 |
[V:4]z12 |
[V:1]f4 >=e4 d2c2 |
[V:2]B8- B2A2 |
[V:3]G,8- G,2A,2 |
[V:4]C,,2G,,2 C,2D,2 =E,2F,2 |
[V:1]c4 >B4 A2=E2 |
[V:2]A4 >G4 F2B,2 |
[V:3]D4 >_D4 C2=E2 |
[V:4]B,,2^F,2 G,2=E,2 =F,2C,2 |
[V:1]G4 F2E2 D2C2 |
[V:2]B,4 A,2C2 B,2A,2 |
[V:3]=E4 F4 z4 |
[V:4]F,,8 z4 |
[V:1]B,2D2 F2B2 d2f2 |
[V:2]B,4 D6 C2 |
[V:3]D,2B,4 <B,4 A,2 |
[V:4]B,,4 z8 |
[V:1]f8 e2d2 |
[V:2]B,2D2 G2B2 c2d2 |
[V:3]G,2B,2 D2G2 A2B2 |
[V:4]z12 |
[V:1]d8 c2B2 |
[V:2]G8 G2_D2 |
[V:3]G,2=B,2 D2F2 G2G2 |
[V:4]E,,2G,,2 =B,,2D,2 E,2=E,2 |
[V:1]B4 A2G2 F2E2 |
[V:2]C8 z4 |
[V:3]G2=E2 F2_E2 D2C2 |
[V:4]F,8 G,2A,2 |
[V:1]D2D2 F2B2 d2f2 |
[V:2]z4 d6 c2 |
[V:3]B,8- B,2A,2 |
[V:4]B,4 z8 |
[V:1]f4 >=e4 d2c2 |
[V:2]B8- B2A2 |
[V:3]G,8- G,2A,2 |
[V:4]C,,2G,,2 C,2D,2 =E,2F,2 |
[V:1]c4 >B4 A2=E2 |
[V:2]A4 >G4 F2B,2 |
[V:3]D4 >_D4 C2=E2 |
[V:4]B,,2^F,2 G,2=E,2 =F,2C,2 |
[V:1]G4 F4 z4 |
[V:2]B,4 A,4 z4 |
[V:3]=E4 F4 z4 |
[V:4]F,,2C,2 F,2F,2 C,2A,,2 |
[V:1]A,2C2 F2A2 c2B2 |
[V:2]z12 |
[V:3]z4 E4 D4 |
[V:4]F,,12- |
[V:1]e4 c2A>f f2g3/f/ |
[V:2]A,2C2 F2A2 c2B3/f/ |
[V:3]z4 E4 D4 |
[V:4]F,,12- |
[V:1]b4 >b4 a2=e2 |
[V:2]f4 =e2_d2 c2B2 |
[V:3]G,2B,2 _D2=E2 F2D2 |
[V:4]F,,12- |
[V:1]=e2g2 f4 z4 |
[V:2]B4 A4 z4 |
[V:3]_D4 C4 z4 |
[V:4]F,,2=E,2 F,2A,2 C2F2 |
[V:1]G2=B2 e2d2 _a2g2 |
[V:2]G8 f2e2 |
[V:3]=B8 c4 |
[V:4]F8 E4 |
[V:1]F2A2 d2c2 g2f2 |
[V:2]F8 e2d2 |
[V:3]A8 B4 |
[V:4]E8 D4 |
[V:1]f4 >e4 d2A2 |
[V:2]d4 >c4 B2E2 |
[V:3]G4 >_G4 F2A2 |
[V:4]E2=B,2 C2A,2 _B,2F,2 |
[V:1]c4 B2z6 |
[V:2]E4 D2z6 |
[V:3]A4 B2z6 |
[V:4]B,,4 >F,4 D,2B,,2 |
[V:1]A,2C2 F2A2 c2B2 |
[V:2]z12 |
[V:3]z4 E4 D4 |
[V:4]F,,12- |
[V:1]e4 c2A>f f2g3/f/ |
[V:2]A,2C2 F2A2 c2B3/f/ |
[V:3]z4 E4 D4 |
[V:4]F,,12- |
[V:1]b4 >b4 a2=e2 |
[V:2]f4 =e2_d2 c2B2 |
[V:3]G,2B,2 _D2=E2 F2D2 |
[V:4]F,,12- |
[V:1]=e2g2 f4 z4 |
[V:2]B4 A4 z4 |
[V:3]_D4 C4 z4 |
[V:4]F,,2=E,2 F,2A,2 C2F2 |
[V:1]G2=B2 e2d2 _a2g2 |
[V:2]G8 f2e2 |
[V:3]=B8 c4 |
[V:4]F8 E4 |
[V:1]F2A2 d2c2 g2f2 |
[V:2]F8 e2d2 |
[V:3]A8 B4 |
[V:4]E8 D4 |
[V:1]f4 >e4 d2A2 |
[V:2]d4 >c4 B2E2 |
[V:3]G4 >_G4 F2Ac |
[V:4]E2=B,2 C2A,2 _B,2F,2 |
[V:1]B4 B,4 (3_DFA(3B_df |
[V:2]_DFFF FFFF FFFF |
[V:3]B_DDD DDDD DDDD |
[V:4]B,,B,,B,,B,, B,,B,,B,,B,, B,,B,,B,,B,, |
[V:1]b4 f2>f2 _d'3b |
[V:2]FFFF FFFF FFFF |
[V:3]_DDDD DDDD DDDD |
[V:4]B,,B,,B,,B,, B,,B,,B,,B,, B,,B,,B,,B,, |
[V:1]f'4 >f'4 e'_d'c'b |
[V:2]FFFF FFFF FFFF |
[V:3]_DDDD DDDD DDDD |
[V:4]B,,B,,B,,B,, B,,B,,B,,B,, B,,B,,B,,B,, |
[V:1]b2a/c'/b/_d'/ c'2c'>d' e'2a2 |
[V:2]_GGGG GGGG GGGG |
[V:3][CE][EC][CE][EC] [EC][CE][CE][CE] [CE][EC][EC][CE] |
[V:4]B,,B,,B,,B,, B,,B,,B,,B,, B,,B,,B,,B,, |
[V:1]b2>_d'2 f'2f'2 f'2f'2 |
[V:2]FFFF FFFF FFFF |
[V:3]_DDDD DDDD DDDD |
[V:4]B,,B,,B,,B,, B,,B,,B,,B,, B,,B,,B,,B,, |
[V:1](3:2:2f'4-f'/e'_d' c'b_ag e'|
[V:2]GGGG GGGG GGGG |
[V:3][E_D][ED][ED][ED] [ED][ED][ED][ED] [ED][ED][ED][DE] |
[V:4]B,,B,,B,,B,, B,,B,,B,,B,, B,,B,,B,,B,, |
[V:1](3:2:2e'4-e'/_d'c' b_a_gf e|
[V:2]_GGGG GGGG GGGG |
[V:3][EC][EC][EC][EC] [EC][EC][EC][EC] [E_A,][EA,][EA,][A,E] |
[V:4]_A,,A,,A,,A,, A,,A,,A,,A,, C,C,C,C, |
[V:1]f_d'b_g ff_a_d eegc |
[V:2]FF_GE _DDFF CCEE |
[V:3]_DD_G,G, _A,A,A,A, G,G,G,G, |
[V:4]_D,D,_G,G, _A,A,A,A, _A,,A,,A,,A,, |
[V:1]_d4 _D4 (3F_Ac(3dfd |
[V:2]FFFF FFFF FFFF |
[V:3]F,_A,A,A, A,A,A,A, A,A,A,A, |
[V:4]_D,D,D,D, D,D,D,D, D,D,D,D, |
[V:1]_a4 _A4 (3CEA(3ceg |
[V:2]EEEE EEEE EEEE |
[V:3]_A,A,A,A, A,A,A,A, A,A,A,A, |
[V:4]C,C,C,C, C,C,C,C, C,C,C,C, |
[V:1]_a4 _A4 (3_CEA(3_ceg |
[V:2]EEEE EEEE EEEE |
[V:3]_A,A,A,A, A,A,A,A, A,A,A,A, |
[V:4]_C,C,C,C, C,C,C,C, C,C,C,C, |
[V:1]_a4 B,4 (3DFB(3dfa |
[V:2]DDDD DDDD DDDD |
[V:3]F,F,F,F, F,F,F,F, F,F,F,F, |
[V:4]B,,B,,B,,B,, B,,B,,B,,B,, B,,B,,B,,B,, |
[V:1]_g4 E4 (3DE_G(3Beg |
[V:2]E_GGG GGGG GGGG |
[V:3]E,B,B,B, B,B,B,B, B,B,B,B, |
[V:4]E,E,E,E, E,E,E,E, E,E,E,E, |
[V:1]b4 =E4 (3_dBG(3EdE |
[V:2][B,G][GB,][B,G][GB,] [B,G][GB,][B,G][B,G] [B,G][B,G][B,G][B,G] |
[V:3]_DDDD DDDD DDDD |
[V:4]=E,E,E,E, E,E,E,E, E,E,E,E, |
[V:1](3FAc(3fac' f'4 (3A,CF(3ECA, |
[V:2][F4A,4] z8 |
[V:3]C4 z8 |
[V:4]F,4 z8 |
[V:1]B,2D2 F2B2 d2f2 |
[V:2]z12 |
[V:3]D,4 z8 |
[V:4]B,,4 z8 |
[V:1]f8 e2d2 |
[V:2]G,2B,2 D2G2 A2B2 |
[V:3]z12 |
[V:4]z12 |
[V:1]d8 c2B2 |
[V:2]G12- |
[V:3]E,2G,2 =B,2D2 E2=E2 |
[V:4]z12 |
[V:1]B4 A2G2 F2E2 |
[V:2]G4 F2E2 D2C2 |
[V:3]F2=E,2 F,2F,2 G,2A,2 |
[V:4]z12 |
[V:1]D2D2 F2B2 d2f2 |
[V:2]D4 d6 c2 |
[V:3]B,8- B,2A,2 |
[V:4]z12 |
[V:1]f4 >=e4 d2c2 |
[V:2]B8- B2A2 |
[V:3]G,8- G,2A,2 |
[V:4]C,,2G,,2 C,2D,2 =E,2F,2 |
[V:1]c4 >B4 A2=E2 |
[V:2]A4 >G4 F2B,2 |
[V:3]D4 >_D4 C2=E2 |
[V:4]B,,2^F,2 G,2=E,2 =F,2C,2 |
[V:1]G4 F2E2 D2C2 |
[V:2]B,4 A,2C2 B,2A,2 |
[V:3]=E4 F4 z4 |
[V:4]F,,2C,2 F,2F,2 G,2A,2 |
[V:1]B,4 z8 |
[V:2]B,2D2 F2B2 d2f2 |
[V:3]z12 |
[V:4]B,4 z8 |
[V:1](3:2:2b4-b/c'/b/a bc'2f d'|
[V:2]f8 e2d2 |
[V:3]G,2B,2 D2G2 A2B2 |
[V:4]z12 |
[V:1](3:2:2d'4-d'/d'g' f'e'd'c' b|
[V:2]g12- |
[V:3]B4 =B4 c4 |
[V:4]E,,2G,,2 =B,,2D,2 E,2=E,2 |
[V:1]b4 a2g2 f2e2 |
[V:2]g2=e2 f2_e2 d2c2 |
[V:3]c4 >F4 G2A2 |
[V:4]F,12 |
[V:1]d12 |
[V:2]c8 B4 |
[V:3]B2z8 z2 |
[V:4]B,,2D,2 F,2B,2 D2F2 |
[V:1]c2=e2 g2b2 d'2c'2 |
[V:2]B8 A4 |
[V:3]z12 |
[V:4]F12 |
[V:1]c'2^f2 a2g2 b2=e2 |
[V:2]A4 G4 d2B2 |
[V:3]D8 G4 |
[V:4]B,8 G,2C2 |
[V:1]g4 f4 z4 |
[V:2]B2c2 ^G2A2 z4 |
[V:3]=E4 F4 z4 |
[V:4]F,8 =E,2F,2 |
[V:1]A,2C2 F2A2 c2B2 |
[V:2]z12 |
[V:3]z4 E4 D4 |
[V:4]F,,12- |
[V:1]e4 c2A>f f2g3/f/ |
[V:2]A,2C2 F2A2 c2B3/f/ |
[V:3]z4 E,4 D,4 |
[V:4]F,,12- |
[V:1]b4 >b4 a2=e2 |
[V:2]f4 =e2_d2 c2B2 |
[V:3]G,2B,2 _D2=E2 F2D2 |
[V:4]F,,12- |
[V:1]=e2g2 f4 z4 |
[V:2]B4 A4 z4 |
[V:3]_D4 C4 z4 |
[V:4]F,,2=E,2 F,2A,2 C2F2 |
[V:1]G2=B2 e2d2 _a2g2 |
[V:2]G8 f2e2 |
[V:3]=B8 c4 |
[V:4]F8 E4 |
[V:1]F2A2 d2c2 g2f2 |
[V:2]F8 e2d2 |
[V:3]A8 B4 |
[V:4]E8 D4 |
[V:1]f4 >e4 d2A2 |
[V:2]d4 >c4 B2E2 |
[V:3]G4 >_G4 F2A,2 |
[V:4]E2=B,2 C2A,2 _B,2F,2 |
[V:1]c4 B4 z2_A2 |
[V:2]E4 D4 z2F2 |
[V:3]A,4 B,4 z2=B,2 |
[V:4]^F,4 G,4 z2D,,2 |
[V:1]_A4 G2G2 F2A,2 |
[V:2]F4 E2E2 D2C2 |
[V:3]=B,4 C2G,2 _B,2E,2 |
[V:4]E,,8 F,,4 |
[V:1]C8 B,2z2 |]
[V:2]A,8 B,2z2 |]
[V:3]E,8 D,2z2 |]
[V:4]B,,12 |]

